X: 28514
T: Munster Buttermilk
R: jig
M: 6/8
K: Gmajor
f|:g2 g age|dBA B3|dBA B3|dBA GBd|
g2 g age|dBA B3|dBA GAB|ABA G3:|
|:dBd g2 g|b2 b bag|a2 a age|g3 age|
dBd g2 g|b2 b bag|age deg|a3 g3:|

